X: 8004
T:Valse Savoyarde
R:Waltz
M:3/4
O:France
K:G
D2|G4B2|d4G2|B2A3^G|A4c2|F4A2|d2dedc|B2BcBA\
|1 B2G2:|2 G4d2:|
|:G2BGBd|G2BGBd|G2BGBd|g2f2e2|\
d2c2A2|F2AFAc|F2AFAc|F2AFAc|\
d6|ed ^cded|1 B3c Bc|B2G2D2:|2 g2d2B2|G6||
